X:36
T:Vals efter G{\aa}s Anders
R:vals
H:Played ABABCBCB
A:Uppland
Z:id:hn-vals-36
M:3/4
L:1/8
K:A
E2 AA A2 | BA GF E2 | E2 cc c2 | c2 Bc A2 |
A2 ff f2 | f2 df af | fe ce ae |1 c4 A2 :|2 c4 B2 ||
|: Ad fd fd | AF Ad fd | Ac ec ec | AE Ac ec |
c2 BB B2 | Bc de fg |1 a3 e ce | ae c2 A2 :|2 ae ce dB | A4 E2 ||
|: e3 f ec | A4 f2 | e3 a ec | A4 a2 |
ac' c'2 c'2 | e4 e2 | ae ce ae | c4 f2 :|
|: Ad fd fd | AF Ad fd | Ac ec ec | AE Ac ec |
c2 BB B2 | Bc de fg |1 a3 e ce | ae c2 A2 :|2 ae ce dB | A4 f2 ||

